X: 6693
T: Centennial, The
R: waltz
M: 3/4
K: Cmajor
|:E>F|"C"G3 e ^d>e|c2 G2 E>G|"F"F3 G (3FDE|"D7"A,3 B, C>A,|
"G"B,3 ^A, B,>D|G3 G ^F>G|1 "D7"A2 "G7"G2 f2|"C"e3 G:|2 "D7"A2 "G7"G2 B2|"C"c4||
|:"G7"e>f|"C"g3 c' b>c'|e4 f>e|"F"d<f- f2 d2|"D7"A3 B c>A|
"G"B3 ^A B>d|g3 g ^f>g|"D7"a2 (3gab "G7"c'2|"C"e4 e>f|
"C"g2 c'2 e2|g4 f>e|"F"d<f- f2 d2|"D7"A4 B>A|
"G"G2 B2 d2|"G7"g3 g ^f>g|"D7"a2 A2 "G7"B2|"C"c4:|

